X:363
T: Abtrumpfen zwischen Burschen und Mdchen (93a), S. 239
N: T0252E
O: Luxemburg
S: Singendes Volk, Esch-Alzette 1937 posth.]
N: Blascheid, fff Barbara Kaisen-Kolbach;
N: (93b)- Boxhorn, mitgeteilt:
N: hhh Heinrich Godefroid (Lehrer)
R: Liebeslieder]
M: 3/4
L: 1/8
K: G
G2 | G2D2B2 | B2G2z2 |
d2edcB | d2d2ed | d2d2
ed | c2A2G2 | G2G2
ed | c2A2G2 | G2G2
GG | e3ee2 | edd2
Bd | d2c2Ac | c2B2

@@@ Tune index: 8417
